img/svg/logos/2.svg

<svg width="90" height="32" viewBox="0 0 90 32" fill="none" xmlns="http://www.w3.org/2000/svg">
<path d="M49.2075 5.64504C49.1482 5.58629 49.1482 5.54223 49.1482 5.48348V4.26438C49.1482 4.10282 49.252 4 49.415 4H50.3341C50.4971 4 50.5564 4.10282 50.5564 4.26438V5.48348C50.5564 5.64504 50.4971 5.74786 50.3341 5.74786H49.4299C49.3113 5.76254 49.2668 5.70379 49.2075 5.64504ZM49.2075 7.24602H50.4971V15.7209H49.2075V7.24602ZM52.6464 7.24602H53.6099L53.8767 8.20074C54.3066 7.8776 54.8402 7.61322 55.3886 7.45165C55.9223 7.23133 56.4707 7.12852 57.0043 7.12852C57.8641 7.12852 58.5607 7.3929 58.9906 7.92166C59.4205 8.45043 59.6428 9.14076 59.6428 9.94859V15.7062H58.3532V10.0514C58.3532 9.52264 58.1902 9.03795 57.8641 8.71481C57.538 8.39168 57.1081 8.18605 56.5745 8.18605C56.0409 8.18605 55.611 8.2448 55.2256 8.40637C54.855 8.50918 54.3659 8.7295 53.8767 9.05263V15.7209H52.5871V7.24602H52.6464ZM60.3988 7.24602H61.6884L64.3268 14.5459L67.0691 7.24602H68.3586L65.0828 15.7209H63.6301L60.3988 7.24602ZM70.5672 15.3978C70.0781 15.1334 69.7075 14.7075 69.4852 14.0612C69.2628 13.4149 69.1591 12.563 69.1591 11.4468C69.1591 10.3305 69.2628 9.41983 69.4852 8.83231C69.7075 8.18605 70.0781 7.7601 70.6117 7.49572C71.1453 7.23133 71.842 7.12852 72.761 7.12852C73.5615 7.12852 74.1544 7.23134 74.6435 7.3929C75.1327 7.55447 75.444 7.8776 75.6663 8.2448C75.8886 8.67075 75.9924 9.19951 75.9924 9.94859C75.9924 10.6977 75.7701 11.1677 75.3402 11.4908C74.9103 11.814 74.3174 11.9755 73.517 11.9755H70.3894C70.3894 12.7246 70.4931 13.2534 70.6117 13.6793C70.7748 14.0465 70.9823 14.3696 71.3677 14.5312C71.7531 14.6928 72.2867 14.7956 72.9834 14.7956H75.7256V15.5447C75.1327 15.6034 74.6435 15.6475 74.1692 15.7062C73.7393 15.765 73.2057 15.765 72.6573 15.765C71.7531 15.8384 71.0564 15.6769 70.5672 15.3978ZM73.4281 11.1383C73.9172 11.1383 74.2878 11.0355 74.5101 10.8739C74.7325 10.7124 74.8362 10.3892 74.8362 9.91922C74.8362 9.22889 74.6732 8.70012 74.3471 8.42105C74.021 8.14198 73.4873 7.9951 72.6721 7.9951C72.0199 7.9951 71.59 8.09792 71.2194 8.25949C70.8933 8.42105 70.6265 8.74419 70.5228 9.17013C70.3597 9.59608 70.3004 10.2423 70.3004 11.0355H73.4281V11.1383ZM78.957 15.7797C78.201 15.7209 77.7267 15.6769 77.445 15.6181V14.869H80.9432C81.5362 14.869 81.966 14.8103 82.2328 14.6487C82.4996 14.4871 82.6627 14.164 82.6627 13.6353V13.2681C82.6627 12.4749 82.1291 12.093 81.1063 12.093H79.9205C79.12 12.093 78.4678 11.9315 78.038 11.6083C77.6081 11.2852 77.3858 10.7564 77.3858 10.0073V9.5814C77.3858 8.78825 77.6081 8.20073 78.0824 7.81885C78.5716 7.45165 79.3127 7.29009 80.3948 7.29009C80.8839 7.29009 81.4176 7.29009 82.0105 7.34884C82.6627 7.40759 83.137 7.45165 83.4631 7.5104V8.25949H80.1873C79.5944 8.25949 79.1645 8.3623 78.8977 8.52387C78.6309 8.74419 78.4678 9.05263 78.4678 9.53733V9.90453C78.4678 10.3892 78.6309 10.6536 78.8977 10.8152C79.1645 10.9767 79.5944 11.0355 80.128 11.0355H81.3583C82.1587 11.0355 82.7516 11.1971 83.1815 11.5643C83.6114 11.9315 83.8337 12.4749 83.8337 13.1065V13.694C83.8337 14.4871 83.5669 15.0747 83.0333 15.3978C82.4996 15.7209 81.7437 15.8825 80.7802 15.8825C80.3059 15.8384 79.7129 15.7797 78.957 15.7797ZM86.6056 15.0894C86.235 14.6634 86.0127 13.9731 86.0719 12.9596L86.1312 8.27418H84.7824V7.48103L86.1757 7.26071L86.398 4.91065H87.3615V7.26071H89.8369V8.27418H87.3615V12.9596C87.3615 13.6059 87.4653 14.0318 87.7321 14.2962C87.9989 14.5165 88.2657 14.6634 88.6511 14.7222L89.6739 14.825V15.7356H88.4881C87.6283 15.7209 86.9761 15.5153 86.6056 15.0894ZM49.9635 27.7209C49.6374 27.5594 49.4299 27.2362 49.2668 26.8103C49.1038 26.3843 49 25.7381 49 24.9449C49 24.1518 49.1038 23.5643 49.2668 23.1383C49.4299 22.7124 49.6967 22.3892 50.0228 22.2277C50.3489 22.0661 50.7194 21.9633 51.2086 21.9633C51.6385 21.9633 52.009 22.022 52.3351 22.0661C52.6612 22.1248 52.9281 22.2277 53.1356 22.2864V23.4614C52.9725 23.4027 52.7057 23.4027 52.4389 23.3586C52.1721 23.3586 51.846 23.2999 51.5199 23.2999C51.2531 23.2999 51.09 23.3586 50.927 23.4027C50.8232 23.4614 50.7046 23.623 50.6602 23.8874C50.6009 24.1077 50.5564 24.4749 50.5564 24.9596C50.5564 25.3856 50.5564 25.7528 50.6157 25.9731C50.675 26.1934 50.7787 26.3403 50.8825 26.4578C51.0456 26.5606 51.2086 26.6193 51.5347 26.6193C52.2314 26.6193 52.765 26.6193 53.0911 26.5606V27.7356C52.6612 27.8972 52.009 28 51.1493 28C50.6602 27.9853 50.2896 27.8825 49.9635 27.7209ZM57.0636 22.0661H59.0054L60.7842 27.9266H59.1685L58.9461 27.0159H57.1674L56.945 27.9266H55.3886L57.0636 22.0661ZM58.5163 25.6353L57.9826 23.4027L57.449 25.6353H58.5163ZM63.0372 22.0661H64.2675L66.3724 25.3121V22.0661H67.9288V27.9266H66.6985L64.5936 24.6805V27.9266H63.0372V22.0661ZM71.8568 22.0661H73.7986L75.5774 27.9266H73.9617L73.6949 27.0159H71.9161L71.6938 27.9266H70.1374L71.8568 22.0661ZM73.3095 25.6353L72.7758 23.4027L72.2422 25.6353H73.3095ZM77.6674 22.0661H80.3059C81.1063 22.0661 81.6547 22.3305 81.9808 22.8592C82.3069 23.388 82.47 24.0783 82.47 25.0477C82.47 26.0612 82.3069 26.8103 81.9364 27.2803C81.5658 27.765 81.0174 27.9706 80.3207 27.9706H77.6822V22.0661H77.6674ZM80.1428 26.5459C80.4096 26.5459 80.632 26.4431 80.7357 26.1787C80.8395 25.9584 80.8988 25.5324 80.8988 24.9596C80.8988 24.5337 80.8395 24.1665 80.795 23.9461C80.7357 23.7258 80.632 23.5789 80.5282 23.5202C80.4244 23.4614 80.2614 23.4174 80.0983 23.4174H79.1793V26.5606H80.1428V26.5459ZM86.2795 22.0661H88.2213L90 27.9266H88.3843L88.162 27.0159H86.3832L86.1609 27.9266H84.6045L86.2795 22.0661ZM87.7914 25.6353L87.2578 23.4027L86.7241 25.6353H87.7914Z" fill="#4B4B4B"/>
<path d="M66.8905 18H67.606V20H66.8905V18ZM68.8237 18H69.4326L70.422 19.1351V18H71.1375V20H70.5895L69.6001 18.8649V20H68.8846V18H68.8237ZM48.1674 18.8541L64.4093 18.6919C64.6377 18.6919 64.8508 18.8108 64.8508 19.0054C64.8508 19.1676 64.6833 19.3189 64.4093 19.3189L48.1674 19.1568C48.0609 19.1568 48 19.0811 48 18.9946C48 18.8973 48.0457 18.8541 48.1674 18.8541ZM89.8149 19.1351L73.6796 19.2973C73.4512 19.2973 73.2381 19.1784 73.2381 18.9838C73.2381 18.7892 73.4056 18.6703 73.6796 18.6703L89.8149 18.8324C89.9215 18.8324 89.9823 18.9081 89.9823 18.9946C90.0432 19.0595 89.9367 19.1351 89.8149 19.1351Z" fill="#9A9A9C"/>
<path d="M21.8669 32L22.648 27.6884H28L20.5072 21L13 27.6884H18.352L19.1475 32H21.8669Z" fill="#666666"/>
<path d="M28.9838 25L20.4849 17.7339L11.9407 24.9561L0 20.8772L3.83432 18.7573L0.769883 13.6111L6.85346 13.5526V9.4152L16.394 17.2661L13.6314 3.02632L17.4658 5.1462L20.4849 0L23.504 5.1462L27.3384 3.02632L24.606 17.2515L34.1465 9.40058V13.538L40.2301 13.5965L37.1657 18.7427L41 20.8626L28.9838 25Z" fill="#666666"/>
<path d="M20 0L17 5.29892L20 7V0Z" fill="#666666"/>
<path d="M20 0V7L23 5.29892L20 0Z" fill="#666666"/>
<path d="M40 14.05L34.059 14L34 17L40 14.05Z" fill="#666666"/>
<path d="M27 3L23.2426 5.27993L22 20L24.3077 17.9496L27 3Z" fill="#666666"/>
<path d="M23 5L20 6.76195V18.3628L21.74 20L23 5Z" fill="#666666"/>
<path d="M14 3L17.7685 5.27993L19 20L16.6855 17.9496L14 3Z" fill="#666666"/>
<path d="M17 5L20 6.76195V18.3628L18.26 20L17 5Z" fill="#666666"/>
<path d="M22 19.5744L34 9V13.4334L23.6142 21L22 19.5744Z" fill="#666666"/>
<path d="M34 14L24 20.6967L25.5396 22L34 17.3137V14Z" fill="#666666"/>
<path d="M27 23.4151L37.1432 19L41 21.0519L28.9284 25L27 23.4151Z" fill="#666666"/>
<path d="M37.0074 19L40 14L34 17.3523L37.0074 19Z" fill="#666666"/>
<path d="M1 14.0875L6.94103 14L7 17L1 14.0875Z" fill="#666666"/>
<path d="M19 19.5901L7 9V13.4334L17.3858 21L19 19.5901Z" fill="#666666"/>
<path d="M7 14L17 20.7317L15.4604 22L7.04399 17.3449L7 14Z" fill="#666666"/>
<path d="M15 22.412L6.87387 17L4 18.9444L13.4569 24L15 22.412Z" fill="#666666"/>
<path d="M14 23.4151L3.85683 19L0 21.0519L12.0108 25L14 23.4151Z" fill="#666666"/>
<path d="M3.99263 19L1 14L7 17.2955L3.99263 19Z" fill="#666666"/>
<path d="M14 26.5533L15.8113 25L17.5623 25.8376L18 28L14 26.5533Z" fill="#666666"/>
<path d="M17.5556 24L16 24.5802L18 25L17.5556 24Z" fill="#666666"/>
<path d="M18.8846 22L17 23.3009L19.0385 32H20L18.8846 22Z" fill="#666666"/>
<path d="M19 22.3182L20 21V32H19.5686L19 22.3182Z" fill="#666666"/>
<path d="M18 28H13L14.4572 26L18 28Z" fill="#666666"/>
<path d="M27 26.5533L25.1609 25L23.3831 25.8376L23 28L27 26.5533Z" fill="#666666"/>
<path d="M23.4444 24L25 24.5802L23 25L23.4444 24Z" fill="#666666"/>
<path d="M21.719 22L23 23.3009L21.6667 32H21L21.719 22Z" fill="#666666"/>
<path d="M22 22.3182L20 21V32H20.9216L22 22.3182Z" fill="#666666"/>
<path d="M23 28H28L26.527 26L23 28Z" fill="#666666"/>
<path d="M25 22.4769L33.9112 17L37 18.9444L26.6834 24L25 22.4769Z" fill="#666666"/>
</svg>

<svg width="90" height="32" viewBox="0 0 90 32" fill="none" xmlns="http://www.w3.org/2000/svg"><path d="M49.208 5.645c-.06-.059-.06-.103-.06-.162V4.264c0-.161.104-.264.267-.264h.92c.162 0 .221.103.221.264v1.22c0 .161-.059.264-.222.264h-.904c-.119.015-.163-.044-.222-.103zm0 1.601h1.29v8.475h-1.29V7.246zm3.438 0h.964l.267.955c.43-.323.963-.588 1.512-.75a4.228 4.228 0 011.615-.322c.86 0 1.557.264 1.987.793.43.528.652 1.219.652 2.027v5.757h-1.29v-5.655c0-.528-.163-1.013-.489-1.336a1.783 1.783 0 00-1.29-.529c-.533 0-.963.059-1.348.22-.371.103-.86.323-1.35.647v6.668h-1.289V7.246h.06zm7.753 0h1.29l2.638 7.3 2.742-7.3h1.29l-3.276 8.475H63.63L60.4 7.246zm10.168 8.152c-.489-.265-.86-.69-1.082-1.337-.222-.646-.326-1.498-.326-2.614 0-1.116.104-2.027.326-2.615.222-.646.593-1.072 1.127-1.336.533-.265 1.23-.367 2.149-.367.8 0 1.393.102 1.883.264.489.161.8.485 1.022.852.223.426.326.955.326 1.704s-.222 1.219-.652 1.542c-.43.323-1.023.485-1.823.485h-3.128c0 .749.104 1.277.223 1.703.163.367.37.69.756.852.385.162.919.265 1.615.265h2.743v.749c-.593.058-1.082.103-1.557.161-.43.059-.963.059-1.512.059-.904.073-1.6-.088-2.09-.367zm2.861-4.26c.49 0 .86-.102 1.082-.264.222-.162.326-.485.326-.955 0-.69-.163-1.219-.489-1.498-.326-.279-.86-.426-1.675-.426-.652 0-1.082.103-1.453.264a1.36 1.36 0 00-.696.911c-.163.426-.223 1.072-.223 1.866h3.128v.102zm5.529 4.642c-.756-.06-1.23-.103-1.512-.162v-.749h3.498c.593 0 1.023-.059 1.29-.22.267-.162.43-.485.43-1.014v-.367c0-.793-.534-1.175-1.557-1.175h-1.185c-.801 0-1.453-.162-1.883-.485-.43-.323-.652-.852-.652-1.6V9.58c0-.793.222-1.38.696-1.762.49-.367 1.23-.529 2.313-.529.489 0 1.023 0 1.615.059.653.059 1.127.103 1.453.161v.75h-3.276c-.593 0-1.022.102-1.29.264-.266.22-.43.529-.43 1.013v.368c0 .484.164.749.43.91.267.162.697.22 1.231.22h1.23c.8 0 1.394.162 1.823.53.43.367.653.91.653 1.542v.587c0 .793-.267 1.38-.8 1.704-.534.323-1.29.485-2.254.485-.474-.045-1.067-.103-1.823-.103zm7.649-.69c-.371-.427-.593-1.117-.534-2.13l.06-4.686h-1.35v-.793l1.394-.22.222-2.35h.964v2.35h2.475v1.013h-2.475v4.686c0 .646.103 1.072.37 1.336.267.22.534.367.92.426l1.022.103v.91h-1.186c-.86-.014-1.512-.22-1.882-.646zM49.964 27.72c-.327-.16-.534-.484-.697-.91-.163-.426-.267-1.072-.267-1.865 0-.793.104-1.38.267-1.807.163-.426.43-.749.756-.91a2.568 2.568 0 011.186-.265c.43 0 .8.059 1.126.103.326.059.593.162.8.22v1.175c-.163-.058-.43-.058-.696-.102-.267 0-.593-.06-.92-.06-.266 0-.429.06-.592.104-.104.058-.222.22-.267.484-.06.22-.104.588-.104 1.073 0 .426 0 .793.06 1.013.059.22.163.367.267.485.163.103.326.161.652.161.696 0 1.23 0 1.556-.058v1.175c-.43.161-1.082.264-1.942.264a2.761 2.761 0 01-1.185-.28zm7.1-5.654h1.941l1.78 5.86h-1.616l-.223-.91h-1.779l-.222.91h-1.556l1.675-5.86zm1.452 3.57l-.533-2.233-.534 2.232h1.067zm4.521-3.57h1.23l2.105 3.246v-3.246h1.557v5.86h-1.23l-2.105-3.245v3.246h-1.557v-5.86zm8.82 0h1.942l1.778 5.86h-1.615l-.267-.91h-1.779l-.222.91h-1.557l1.72-5.86zm1.453 3.57l-.534-2.233-.534 2.232h1.067zm4.357-3.57h2.639c.8 0 1.349.265 1.675.793.326.529.489 1.22.489 2.189 0 1.013-.163 1.762-.534 2.232-.37.485-.919.69-1.615.69h-2.639v-5.904h-.015zm2.476 4.48c.267 0 .489-.103.593-.367.103-.22.163-.647.163-1.22 0-.425-.06-.793-.104-1.013-.06-.22-.163-.367-.267-.426a.926.926 0 00-.43-.103h-.919v3.144h.964v-.015zm6.136-4.48h1.942L90 27.926h-1.616l-.222-.91h-1.779l-.222.91h-1.556l1.674-5.86zm1.512 3.57l-.533-2.233-.534 2.232h1.067z" fill="#4B4B4B"/><path d="M66.89 18h.716v2h-.715v-2zm1.934 0h.609l.989 1.135V18h.716v2h-.549l-.989-1.135V20h-.715v-2h-.061zm-20.657.854l16.242-.162c.229 0 .442.119.442.313 0 .163-.168.314-.442.314l-16.242-.162a.158.158 0 01-.167-.162c0-.098.046-.14.167-.14zm41.648.281l-16.135.162c-.229 0-.442-.119-.442-.313 0-.195.168-.314.442-.314l16.135.162c.106 0 .167.076.167.163.061.064-.045.14-.167.14z" fill="#9A9A9C"/><path d="M21.867 32l.781-4.312H28L20.507 21 13 27.688h5.352L19.148 32h2.719z" fill="#666"/><path d="M28.984 25l-8.5-7.266-8.543 7.222L0 20.877l3.834-2.12L.77 13.611l6.083-.058V9.415l9.541 7.851-2.763-14.24 3.835 2.12L20.485 0l3.019 5.146 3.834-2.12-2.732 14.226 9.54-7.851v4.137l6.084.059-3.064 5.146L41 20.863 28.984 25z" fill="#666"/><path d="M20 0l-3 5.299L20 7V0zm0 0v7l3-1.701L20 0zm20 14.05L34.059 14 34 17l6-2.95zM27 3l-3.757 2.28L22 20l2.308-2.05L27 3z" fill="#666"/><path d="M23 5l-3 1.762v11.6L21.74 20 23 5zm-9-2l3.768 2.28L19 20l-2.314-2.05L14 3z" fill="#666"/><path d="M17 5l3 1.762v11.6L18.26 20 17 5zm5 14.574L34 9v4.433L23.614 21 22 19.574z" fill="#666"/><path d="M34 14l-10 6.697L25.54 22 34 17.314V14zm-7 9.415L37.143 19 41 21.052 28.928 25 27 23.415zM37.007 19L40 14l-6 3.352L37.007 19zM1 14.088L6.941 14 7 17l-6-2.912zm18 5.502L7 9v4.433L17.386 21 19 19.59zM7 14l10 6.732L15.46 22l-8.416-4.655L7 14z" fill="#666"/><path d="M15 22.412L6.874 17 4 18.944 13.457 24 15 22.412z" fill="#666"/><path d="M14 23.415L3.857 19 0 21.052 12.01 25 14 23.415zM3.993 19L1 14l6 3.296L3.993 19zM14 26.553L15.811 25l1.751.838L18 28l-4-1.447zM17.556 24L16 24.58l2 .42-.444-1z" fill="#666"/><path d="M18.885 22L17 23.3l2.038 8.7H20l-1.115-10z" fill="#666"/><path d="M19 22.318L20 21v11h-.431L19 22.318zM18 28h-5l1.457-2L18 28zm9-1.447L25.16 25l-1.777.838L23 28l4-1.447zM23.444 24l1.556.58-2 .42.444-1zm-1.725-2L23 23.3 21.667 32H21l.719-10z" fill="#666"/><path d="M22 22.318L20 21v11h.922L22 22.318zM23 28h5l-1.473-2L23 28zm2-5.523L33.911 17 37 18.944 26.683 24 25 22.477z" fill="#666"/></svg>
